icons/mobile/24/svg/notification-24.svg

<svg width="24" height="24" viewBox="0 0 24 24" fill="none" xmlns="http://www.w3.org/2000/svg">
<path d="M13.125 12.25C13.6082 12.25 14 12.6418 14 13.125C14 13.6082 13.6082 14 13.125 14H7.875C7.39175 14 7 13.6082 7 13.125C7 12.6418 7.39175 12.25 7.875 12.25H13.125Z" fill="black"/>
<path d="M16.125 8C16.6082 8 17 8.39175 17 8.875C17 9.35825 16.6082 9.75 16.125 9.75H7.875C7.39175 9.75 7 9.35825 7 8.875C7 8.39175 7.39175 8 7.875 8H16.125Z" fill="black"/>
<path fill-rule="evenodd" clip-rule="evenodd" d="M12 3.50098C14.1308 3.50098 16.5764 3.62048 19.2627 3.9668C20.8191 4.16757 22 5.49428 22 7.07227V14.9297C22 16.3906 20.9926 17.6589 19.5791 17.9785L19.292 18.0293C18.8718 18.0841 18.4408 18.1328 18 18.1797V19.8711C17.9999 21.7319 15.7761 22.6929 14.4199 21.4199L11.3057 18.4951C9.34383 18.4714 7.13642 18.3439 4.7373 18.0342C3.18094 17.8334 2 16.5067 2 14.9287V7.07129C2 5.51322 3.14579 4.17455 4.70801 3.97168C6.8742 3.69139 9.32072 3.50098 12 3.50098ZM12 5.25098C9.40348 5.25098 7.03329 5.43535 4.93359 5.70703C4.26007 5.79438 3.75 6.37552 3.75 7.07129V14.9287C3.75 15.6187 4.26933 16.2086 4.96094 16.2979C7.11618 16.5761 9.11156 16.7046 10.9053 16.7402L11.6611 16.75L11.7432 16.7539C11.9339 16.773 12.114 16.855 12.2549 16.9873L15.6182 20.1436C15.8579 20.3686 16.2499 20.1981 16.25 19.8711V17.3896C16.2502 16.9376 16.5947 16.5599 17.0449 16.5186C17.7432 16.4546 18.4172 16.3785 19.0654 16.2939C19.739 16.2066 20.25 15.6255 20.25 14.9297V7.07227C20.25 6.42552 19.7937 5.8666 19.167 5.72559L19.0391 5.70312C16.4355 5.36746 14.0652 5.25098 12 5.25098Z" fill="black"/>
</svg>

<!-- This Source Code Form is subject to the terms of the Mozilla Public
   - License, v. 2.0. If a copy of the MPL was not distributed with this
   - file, You can obtain one at http://mozilla.org/MPL/2.0/. -->
<svg xmlns="http://www.w3.org/2000/svg" width="24" height="24" fill="none" viewBox="0 0 24 24">
    <path fill="#000" d="M13.125 12.25a.875.875 0 0 1 0 1.75h-5.25a.875.875 0 0 1 0-1.75zm3-4.25a.875.875 0 0 1 0 1.75h-8.25a.875.875 0 1 1 0-1.75z" />
    <path fill="#000" fill-rule="evenodd" d="M12 3.501c2.13 0 4.576.12 7.263.466A3.14 3.14 0 0 1 22 7.072v7.858a3.12 3.12 0 0 1-2.42 3.049l-.288.05q-.63.082-1.292.15v1.692c0 1.86-2.224 2.822-3.58 1.549l-3.114-2.925a57 57 0 0 1-6.569-.46A3.14 3.14 0 0 1 2 14.928V7.07a3.12 3.12 0 0 1 2.708-3.1A57 57 0 0 1 12 3.502m0 1.75c-2.597 0-4.967.184-7.066.456A1.37 1.37 0 0 0 3.75 7.071v7.858c0 .69.52 1.28 1.21 1.369 2.156.278 4.152.407 5.945.442l.756.01.082.004a.88.88 0 0 1 .512.233l3.363 3.157c.24.225.632.054.632-.273V17.39c0-.452.345-.83.795-.871q1.047-.097 2.02-.225a1.37 1.37 0 0 0 1.185-1.364V7.072c0-.646-.456-1.205-1.083-1.346l-.128-.023A55 55 0 0 0 12 5.251" clip-rule="evenodd" />
</svg>
